X: 36540
T: Setting Sail
R: jig
M: 6/8
K: Dmajor
DEF|:FEF FED|A2F DEF|FEF GAB|A2F DEF|
FEF FED|A2F DEF|FDF ECE|1 D2D DEF:|2 D2A ABc||
|:d2d dcB|=c2c cBA|B2B BAG|1 A2A AB^c:|2 A2F DEF||
|:G2B BAG|A2F DEF|G2B BAG|A2A AGF|E2A AGE|1 D2D DEF:|2 D3 DEF||

